X: 9
T: Dusty Miller, The
Z: chansherly212
S: https://thesession.org/tunes/28#setting54094
R: slip jig
M: 9/8
L: 1/8
K: Gmaj
|:B2d d2c BAG|E2A A2B cBA|B2d d2c BAG|D2G G2A BAG:|
|:B2d e2f g3|a2A A2B cBA|B2d e2f g2a|gfe d2A BAG:|

%-------------------- TUNE SEPARATOR --------------------%

